X: 31736
T: Pat Mahon's
R: jig
M: 6/8
K: Edorian
B|~e3 edB|~g3 aga|bge dBA|Bee dBA|
Bee edB|~g3 aga|bge dBA|Bed e2:|:g/f/|
egb egb|egb bge|dfa dfa|dfa agf|
~g3 aga|bge deg|~a3 ged|Bed e2:|

